assets/img/braze_icons/car-02.svg

<svg fill="none" height="24" viewBox="0 0 24 24" width="24" xmlns="http://www.w3.org/2000/svg"><path clip-rule="evenodd" d="m8.16146 2h7.67704c.5272-.00002.982-.00003 1.3565.03057.3954.0323.7886.10362 1.167.29641.5645.28762 1.0234.74657 1.311 1.31105.1928.37838.2641.7716.2964 1.16694.0306.37457.0306.82933.0306 1.35647v1.83856h1c0-.55228.4477-1 1-1s1 .44772 1 1v1c0 .55229-.4477 1-1 1h-.3542c.3757.3314.6881.7324.9182 1.184.2473.4854.3459 1.0021.3918 1.5642.0442.5412.0442 1.2055.0442 2.0105v3.2733c0 .4386 0 .8171-.0213 1.1304-.0226.3298-.0721.6597-.2071.9857-.3044.735-.8885 1.3191-1.6235 1.6235-.326.135-.6559.1845-.9857.2071-.3133.0213-.6918.0213-1.1304.0213-.1261 0-.2535.0026-.3815.0053-.3746.0078-.7545.0156-1.1198-.0422-1.2837-.2033-2.2904-1.2101-2.4938-2.4938-.023-.1452-.0317-.3003-.035-.4693h-6.00378c-.00329.169-.01206.3241-.03505.4693-.20332 1.2837-1.21009 2.2905-2.49376 2.4938-.36534.0578-.74506.05-1.11971.0422-.128-.0027-.25554-.0053-.38159-.0053-.43865 0-.81713 0-1.13039-.0213-.32983-.0226-.65974-.0721-.98567-.2071-.73508-.3044-1.31911-.8885-1.62359-1.6235-.135-.326-.1845-.6559-.20701-.9857-.021371-.3133-.021361-.6917-.02135-1.1304v-3.2733c-.000011-.805-.000021-1.4693.0442-2.0105.04592-.5621.14448-1.0788.39178-1.5642.23014-.4516.54255-.8526.91827-1.184h-.35425c-.55228 0-1-.44771-1-1v-1c0-.55228.44772-1 1-1 .55229 0 1 .44772 1 1h1v-1.83854c-.00002-.52714-.00003-.98192.03057-1.35649.0323-.39534.10362-.78856.29641-1.16694.28762-.56449.74656-1.02343 1.31105-1.31105.37838-.19279.7716-.26411 1.16694-.29641.37457-.0306.82936-.03059 1.35649-.03057zm-2.16146 7.00163c.21673-.00149.44591-.00162.68803-.00163h-.68803v-2.8c0-.57655.00078-.94882.02393-1.23216.02219-.27166.05987-.37238.08507-.42183.09587-.18816.24885-.34114.43701-.43701.04945-.0252.15016-.06287.42183-.08507.28333-.02315.65561-.02393 1.23216-.02393h7.6c.5766 0 .9488.00078 1.2322.02393.2716.0222.3723.05987.4218.08507.1882.09587.3411.24885.437.43701.0252.04945.0629.15017.0851.42183.0231.28334.0239.65561.0239 1.23216v2.8h-.688l.2048.00007zm11.5168-.00156.4832-.00007v.00163c-.1547-.00106-.3157-.00143-.4832-.00156zm-13.0168 4.49993c0-.8284.67157-1.5 1.5-1.5s1.5.6716 1.5 1.5-.67157 1.5-1.5 1.5-1.5-.6716-1.5-1.5zm13.5-1.5c-.8284 0-1.5.6716-1.5 1.5s.6716 1.5 1.5 1.5 1.5-.6716 1.5-1.5-.6716-1.5-1.5-1.5z" fill="#801ed7" fill-rule="evenodd"/></svg>

<svg width="24" height="24" viewBox="0 0 24 24" fill="none" xmlns="http://www.w3.org/2000/svg">
<path fill-rule="evenodd" clip-rule="evenodd" d="M8.16146 2H15.8385C16.3657 1.99998 16.8205 1.99997 17.195 2.03057C17.5904 2.06287 17.9836 2.13419 18.362 2.32698C18.9265 2.6146 19.3854 3.07355 19.673 3.63803C19.8658 4.01641 19.9371 4.40963 19.9694 4.80497C20 5.17954 20 5.6343 20 6.16144V8H21C21 7.44772 21.4477 7 22 7C22.5523 7 23 7.44772 23 8V9C23 9.55229 22.5523 10 22 10H21.6458C22.0215 10.3314 22.3339 10.7324 22.564 11.184C22.8113 11.6694 22.9099 12.1861 22.9558 12.7482C23 13.2894 23 13.9537 23 14.7587V18.032C23 18.4706 23 18.8491 22.9787 19.1624C22.9561 19.4922 22.9066 19.8221 22.7716 20.1481C22.4672 20.8831 21.8831 21.4672 21.1481 21.7716C20.8221 21.9066 20.4922 21.9561 20.1624 21.9787C19.8491 22 19.4706 22 19.032 22C18.9059 22 18.7785 22.0026 18.6505 22.0053C18.2759 22.0131 17.896 22.0209 17.5307 21.9631C16.247 21.7598 15.2403 20.753 15.0369 19.4693C15.0139 19.3241 15.0052 19.169 15.0019 19H8.99812C8.99483 19.169 8.98606 19.3241 8.96307 19.4693C8.75975 20.753 7.75298 21.7598 6.46931 21.9631C6.10397 22.0209 5.72425 22.0131 5.3496 22.0053C5.2216 22.0026 5.09406 22 4.96801 22C4.52936 22 4.15088 22 3.83762 21.9787C3.50779 21.9561 3.17788 21.9066 2.85195 21.7716C2.11687 21.4672 1.53284 20.8831 1.22836 20.1481C1.09336 19.8221 1.04386 19.4922 1.02135 19.1624C0.999979 18.8491 0.999989 18.4707 1 18.032V14.7587C0.999989 13.9537 0.999979 13.2894 1.0442 12.7482C1.09012 12.1861 1.18868 11.6694 1.43598 11.184C1.66612 10.7324 1.97853 10.3314 2.35425 10H2C1.44772 10 1 9.55229 1 9V8C1 7.44772 1.44772 7 2 7C2.55229 7 3 7.44772 3 8H4L4 6.16146C3.99998 5.63432 3.99997 5.17954 4.03057 4.80497C4.06287 4.40963 4.13419 4.01641 4.32698 3.63803C4.6146 3.07354 5.07354 2.6146 5.63803 2.32698C6.01641 2.13419 6.40963 2.06287 6.80497 2.03057C7.17954 1.99997 7.63433 1.99998 8.16146 2ZM6 9.00163C6.21673 9.00014 6.44591 9.00001 6.68803 9H6V6.2C6 5.62345 6.00078 5.25118 6.02393 4.96784C6.04612 4.69618 6.0838 4.59546 6.109 4.54601C6.20487 4.35785 6.35785 4.20487 6.54601 4.109C6.59546 4.0838 6.69617 4.04613 6.96784 4.02393C7.25117 4.00078 7.62345 4 8.2 4H15.8C16.3766 4 16.7488 4.00078 17.0322 4.02393C17.3038 4.04613 17.4045 4.0838 17.454 4.109C17.6422 4.20487 17.7951 4.35785 17.891 4.54601C17.9162 4.59546 17.9539 4.69618 17.9761 4.96784C17.9992 5.25118 18 5.62345 18 6.2V9H17.312L17.5168 9.00007L6 9.00163ZM17.5168 9.00007L18 9L18 9.00163C17.8453 9.00057 17.6843 9.0002 17.5168 9.00007ZM4.5 13.5C4.5 12.6716 5.17157 12 6 12C6.82843 12 7.5 12.6716 7.5 13.5C7.5 14.3284 6.82843 15 6 15C5.17157 15 4.5 14.3284 4.5 13.5ZM18 12C17.1716 12 16.5 12.6716 16.5 13.5C16.5 14.3284 17.1716 15 18 15C18.8284 15 19.5 14.3284 19.5 13.5C19.5 12.6716 18.8284 12 18 12Z" fill="#801ED7"/>
</svg>
